tools/download-figma-icons/icons/outlined-large/piggy-coin.svg

<svg width="64" height="65" viewBox="0 0 64 65" fill="none" xmlns="http://www.w3.org/2000/svg">
<path fill-rule="evenodd" clip-rule="evenodd" d="M55.8008 42.5389H60.9738V32.5389H55.9128L55.5288 31.6149C52.6408 24.6739 44.8538 19.5999 35.4809 18.4339C35.2019 19.1059 34.8269 19.7289 34.3749 20.2879C38.0789 20.7069 41.5709 21.8359 44.5958 23.6349C45.3068 24.0579 45.5418 24.9779 45.1188 25.6899C44.6938 26.4019 43.7739 26.6379 43.0619 26.2129C39.7059 24.2179 35.6809 23.1409 31.4219 23.0979C31.3349 23.0969 31.2479 23.0969 31.1619 23.0969C24.6449 23.0969 18.6609 25.5599 15.1139 29.7159C14.8169 30.0629 14.3959 30.2419 13.9729 30.2419C13.6279 30.2419 13.2819 30.1239 12.9989 29.8829C12.3689 29.3449 12.2939 28.3979 12.8319 27.7679C15.4589 24.6899 19.1999 22.4089 23.4839 21.1649C22.9479 20.6849 22.4809 20.1299 22.0989 19.5149C12.4399 22.4019 6.02396 29.4669 6.02396 37.3989C6.02396 44.0779 10.5069 50.1879 18.0159 53.7438L18.8739 54.1498V61.0688H24.8739V56.0298L26.5939 56.2858C30.0639 56.7998 33.9199 56.7318 37.3029 56.0858L39.0839 55.7458V61.0388H45.0838V53.5678L45.8788 53.1448C50.3298 50.7779 53.7138 47.3309 55.4088 43.4399L55.8008 42.5389ZM33.0569 15.548C33.0569 13.04 31.0159 11 28.5089 11C26.0009 11 23.9609 13.04 23.9609 15.548C23.9609 18.0559 26.0009 20.0969 28.5089 20.0969C31.0159 20.0969 33.0569 18.0559 33.0569 15.548ZM50.4218 20.9409L56.2898 15.075C51.6018 12.307 45.6278 14.896 42.2439 16.87C45.2598 17.8519 48.0238 19.2339 50.4218 20.9409ZM57.8858 29.5389H61.4738C62.8518 29.5389 63.9738 30.6599 63.9738 32.0389V43.0389C63.9738 44.4179 62.8518 45.5389 61.4738 45.5389H57.7378C55.7888 49.4379 52.4098 52.8758 48.0838 55.3538V61.5388C48.0838 62.9178 46.9618 64.0388 45.5838 64.0388H38.5839C37.2049 64.0388 36.0839 62.9178 36.0839 61.5388V59.3208C33.4329 59.6748 30.5779 59.7238 27.8739 59.4628V61.5688C27.8739 62.9478 26.7519 64.0688 25.3739 64.0688H18.3739C16.9949 64.0688 15.8739 62.9478 15.8739 61.5688V56.0328C7.80795 51.9089 3.02397 45.0019 3.02397 37.3989C3.02397 35.9149 3.23097 34.4629 3.58697 33.0489C2.94297 32.9849 2.30497 32.7729 1.73397 32.3829C-0.0800235 31.1399 -0.546022 28.6539 0.694974 26.8409C1.16197 26.1569 2.09697 25.9809 2.77997 26.4489C3.46397 26.9169 3.63897 27.8509 3.17097 28.5339C2.86397 28.9829 2.97897 29.5999 3.42897 29.9069C3.87697 30.2149 4.49196 30.0979 4.79996 29.6489C4.8023 29.6462 4.80474 29.6437 4.80718 29.6411C4.81207 29.636 4.81696 29.6309 4.82096 29.6249C7.58895 23.7829 13.4079 19.0309 21.0579 16.697C20.9999 16.321 20.9609 15.939 20.9609 15.548C20.9609 11.386 24.3469 7.99998 28.5089 7.99998C32.6479 7.99998 36.0159 11.349 36.0539 15.479C36.8119 15.578 37.5649 15.694 38.3039 15.84C40.9179 13.953 51.7548 6.92398 59.5778 13.768C59.8898 14.042 60.0748 14.433 60.0888 14.848C60.1028 15.263 59.9438 15.665 59.6498 15.958L52.7778 22.8269C54.9418 24.7829 56.6888 27.0439 57.8858 29.5389ZM48.0399 31.0402C48.0399 29.8822 48.9779 28.9452 50.1349 28.9452C51.2919 28.9452 52.2299 29.8822 52.2299 31.0402C52.2299 32.1972 51.2919 33.1342 50.1349 33.1342C48.9779 33.1342 48.0399 32.1972 48.0399 31.0402Z" fill="black"/>
</svg>

<svg xmlns="http://www.w3.org/2000/svg" width="64" height="65" fill="none" viewBox="0 0 64 65"><path fill="currentColor" fill-rule="evenodd" d="M55.8 42.539h5.174v-10h-5.061l-.384-.924C52.64 24.674 44.854 19.6 35.48 18.434a7.6 7.6 0 0 1-1.106 1.854c3.704.419 7.196 1.548 10.22 3.347a1.5 1.5 0 1 1-1.533 2.578c-3.356-1.995-7.381-3.072-11.64-3.115l-.26-.001c-6.517 0-12.501 2.463-16.048 6.619a1.5 1.5 0 0 1-2.115.167 1.5 1.5 0 0 1-.167-2.115c2.627-3.078 6.368-5.36 10.652-6.603a7.6 7.6 0 0 1-1.385-1.65c-9.66 2.887-16.075 9.952-16.075 17.884 0 6.679 4.483 12.789 11.992 16.345l.858.406v6.919h6v-5.04l1.72.257c3.47.514 7.326.446 10.709-.2l1.78-.34v5.293h6v-7.471l.796-.423c4.45-2.367 7.835-5.814 9.53-9.705zM33.058 15.548A4.554 4.554 0 0 0 28.509 11a4.553 4.553 0 0 0-4.548 4.548 4.554 4.554 0 0 0 4.548 4.549 4.554 4.554 0 0 0 4.548-4.549m17.365 5.393 5.868-5.866c-4.688-2.768-10.662-.179-14.046 1.795 3.016.982 5.78 2.364 8.178 4.07m7.464 8.598h3.588c1.378 0 2.5 1.12 2.5 2.5v11c0 1.379-1.122 2.5-2.5 2.5h-3.736c-1.95 3.899-5.328 7.337-9.654 9.815v6.185c0 1.379-1.122 2.5-2.5 2.5h-7a2.5 2.5 0 0 1-2.5-2.5V59.32a36.6 36.6 0 0 1-8.21.142v2.106c0 1.379-1.122 2.5-2.5 2.5h-7a2.5 2.5 0 0 1-2.5-2.5v-5.536c-8.066-4.124-12.85-11.031-12.85-18.634 0-1.484.207-2.936.563-4.35a3.96 3.96 0 0 1-1.853-.666A3.993 3.993 0 0 1 .695 26.84a1.5 1.5 0 1 1 2.476 1.693.987.987 0 1 0 1.629 1.115l.007-.008.014-.016c2.768-5.842 8.587-10.594 16.237-12.928a7.5 7.5 0 0 1-.097-1.149C20.96 11.386 24.347 8 28.509 8c4.139 0 7.507 3.349 7.545 7.479.758.099 1.51.215 2.25.361 2.614-1.887 13.45-8.916 21.274-2.072a1.5 1.5 0 0 1 .072 2.19l-6.872 6.869c2.164 1.956 3.91 4.217 5.108 6.712M48.04 31.04a2.094 2.094 0 1 1 4.189-.001 2.094 2.094 0 0 1-4.19.001" clip-rule="evenodd"/></svg>
